src/art_src/redo.svg

<?xml version="1.0" encoding="UTF-8" standalone="no"?>
<!-- Created with Inkscape (http://www.inkscape.org/) -->

<svg
   width="48px"
   height="48px"
   id="svg11300"
   >
  <g
     id="layer1"
     >
    <path
       transform="matrix(1.489736,0.000000,0.000000,-1.001252,-12.64716,75.31260)"
       d="M 40.481863 36.421127 A 15.644737 8.3968935 0 1 1  9.1923885,36.421127 A 15.644737 8.3968935 0 1 1  40.481863 36.421127 z"
       sodipodi:ry="8.3968935"
       sodipodi:rx="15.644737"
       sodipodi:cy="36.421127"
       sodipodi:cx="24.837126"
       id="path8660"
       style="opacity:0.14117647;color:#000000;fill:url(#radialGradient8668);fill-opacity:1;fill-rule:evenodd;stroke:none;stroke-width:1;stroke-linecap:butt;stroke-linejoin:miter;marker:none;marker-start:none;marker-mid:none;marker-end:none;stroke-miterlimit:10;stroke-dasharray:none;stroke-dashoffset:0;stroke-opacity:1;visibility:visible;display:inline;overflow:visible"
       sodipodi:type="arc" />
    <path
       style="opacity:1;color:#000000;fill:#008000;fill-opacity:1;fill-rule:nonzero;stroke:url(#linearGradient2238);stroke-width:1.00000012;stroke-linecap:butt;stroke-linejoin:miter;marker:none;marker-start:none;marker-mid:none;marker-end:none;stroke-miterlimit:4;stroke-dasharray:none;stroke-dashoffset:0;stroke-opacity:1;visibility:visible;display:block;overflow:visible"
       d="M 38.37476,45.034369 C -1.6510486,46.355509 4.6747954,12.29355 25.49479,12.49765 L 25.49479,3.1222396 L 42.143271,17.708819 L 25.49479,33.006349 C 25.49479,33.006349 25.49479,23.337969 25.49479,23.337969 C 11.43168,22.751999 7.3172614,44.770549 38.37476,45.034369 z "
       id="path1432"
       sodipodi:nodetypes="ccccccc" />
    <path
       sodipodi:nodetypes="ccccccc"
       id="path2177"
       d="M 16.92492,39.315519 C 5.2018204,33.235892 8.7371274,13.087489 26.5085,13.549959 L 26.5085,5.4508678 C 26.5085,5.4508678 40.556238,17.714589 40.556238,17.714589 L 26.5085,30.658617 C 26.5085,30.658617 26.5085,22.380979 26.5085,22.380979 C 11.66865,22.032709 12.34859,35.138579 16.92492,39.315519 z "
       style="opacity:0.69886361;color:#000000;fill:none;fill-opacity:1;fill-rule:nonzero;stroke:url(#linearGradient1764);stroke-width:0.9999997;stroke-linecap:butt;stroke-linejoin:miter;marker:none;marker-start:none;marker-mid:none;marker-end:none;stroke-miterlimit:10;stroke-dasharray:none;stroke-dashoffset:0;stroke-opacity:1;visibility:visible;display:block;overflow:visible" />
    <path
       style="opacity:0.49431817;color:#000000;fill:#008000;fill-opacity:1;fill-rule:nonzero;stroke:none;stroke-width:0.9999997;stroke-linecap:butt;stroke-linejoin:miter;marker:none;marker-start:none;marker-mid:none;marker-end:none;stroke-miterlimit:10;stroke-dasharray:none;stroke-dashoffset:0;stroke-opacity:1;visibility:visible;display:inline;overflow:visible"
       d="M 26.036989,4.5686095 L 36.723727,14.798241 C 29.786227,14.79824 32.036989,23.735424 25.911989,26.610424 L 25.974489,22.943609 C 10.786989,22.881109 11.661989,38.443609 22.724489,42.693609 C 3.6363414,37.811681 6.2869904,13.381109 25.911989,12.88111 L 26.036989,4.5686095 z "
       id="path4989"
       sodipodi:nodetypes="ccccccc" />
  </g>
</svg>

<?xml version="1.0" encoding="UTF-8" standalone="no"?><!DOCTYPE svg PUBLIC "-//W3C//DTD SVG 1.1//EN" "http://www.w3.org/Graphics/SVG/1.1/DTD/svg11.dtd"><svg width="100%" height="100%" viewBox="0 0 48 48" version="1.1" xmlns="http://www.w3.org/2000/svg" xmlns:xlink="http://www.w3.org/1999/xlink" xml:space="preserve" xmlns:serif="http://www.serif.com/" style="fill-rule:evenodd;clip-rule:evenodd;stroke-linejoin:round;stroke-miterlimit:2;"><g id="layer1"><path id="path8660" d="M47.66,38.846c0,-4.612 -10.521,-8.408 -23.306,-8.408c-12.786,0 -23.307,3.796 -23.307,8.408c0,4.612 10.521,8.407 23.307,8.407c12.785,0 23.306,-3.795 23.306,-8.407Z" style="fill:none;"/><path id="path1432" d="M38.375,45.034c-40.026,1.322 -33.7,-32.74 -12.88,-32.536l-0,-9.376l16.648,14.587l-16.648,15.297l-0,-9.668c-14.063,-0.586 -18.178,21.433 12.88,21.696Z" style="fill:#008000;fill-rule:nonzero;"/><path id="path2177" d="M16.925,39.316c-11.723,-6.08 -8.188,-26.229 9.584,-25.766l-0,-8.099l14.047,12.264l-14.047,12.944l-0,-8.278c-14.84,-0.348 -14.16,12.758 -9.584,16.935Z" style="fill:none;fill-rule:nonzero;"/><path id="path4989" d="M26.037,4.569l10.687,10.229c-6.938,0 -4.687,8.937 -10.812,11.812l0.062,-3.666c-15.187,-0.063 -14.312,15.5 -3.25,19.75c-19.088,-4.882 -16.437,-29.313 3.188,-29.813l0.125,-8.312Z" style="fill:#008000;fill-opacity:0.49;fill-rule:nonzero;"/></g></svg>
